picto/announcement.svg

<svg class="color-immutable" width="24" height="24" viewBox="0 0 24 24" fill="none" xmlns="http://www.w3.org/2000/svg"><path d="M0 22.5V1.5C0 0.675 0.675 0 1.5 0H22.5C23.325 0 24 0.675 24 1.5V22.5C24 23.325 23.325 24 22.5 24H1.5C0.675 24 0 23.325 0 22.5Z" fill="#2D327D"/><path d="M21 12.004C21 9.97401 20.156 8.13901 18.8 6.82901C18.66 6.69401 18.439 6.69102 18.293 6.82002C18.129 6.96402 18.123 7.21801 18.28 7.37001C19.494 8.54301 20.25 10.187 20.25 12.004C20.25 13.818 19.496 15.458 18.287 16.631C18.131 16.783 18.137 17.035 18.3 17.18C18.446 17.309 18.668 17.307 18.808 17.171C20.159 15.862 21 14.029 21 12.004Z" fill="white"/><path d="M18.6 12.005C18.6 10.487 17.952 9.11797 16.919 8.15897C16.777 8.02697 16.558 8.02097 16.412 8.14997C16.244 8.29797 16.245 8.55697 16.409 8.70897C17.295 9.53097 17.85 10.704 17.85 12.005C17.85 13.301 17.299 14.47 16.419 15.292C16.256 15.444 16.256 15.702 16.423 15.85C16.569 15.979 16.788 15.974 16.931 15.841C17.957 14.882 18.6 13.517 18.6 12.005Z" fill="white"/><path d="M16.2 12.006C16.2 10.992 15.75 10.082 15.04 9.46303C14.899 9.34003 14.688 9.34103 14.547 9.46503L14.546 9.46603C14.375 9.61703 14.381 9.88103 14.553 10.032C15.102 10.513 15.45 11.22 15.45 12.006C15.45 12.786 15.108 13.488 14.565 13.969C14.395 14.12 14.39 14.382 14.559 14.533L14.56 14.534C14.701 14.659 14.914 14.66 15.055 14.535C15.757 13.917 16.2 13.012 16.2 12.006Z" fill="white"/><path d="M3.478 9.526C3.351 9.526 3.23 9.576 3.14 9.666C3.05 9.755 3 9.877 3 10.004V13.996C3 14.26 3.214 14.474 3.478 14.474H5.925V9.526H3.478Z" fill="white"/><path d="M10.799 6.251C10.627 6.174 10.427 6.204 10.286 6.329L6.67499 9.526V14.474L10.286 17.67C10.375 17.749 10.489 17.79 10.603 17.79C10.67 17.79 10.736 17.776 10.799 17.748C10.971 17.671 11.081 17.5 11.081 17.312V6.688C11.081 6.499 10.97 6.329 10.799 6.251Z" fill="white"/></svg>

<svg class="color-immutable" width="24" height="24" viewBox="0 0 24 24" fill="none" xmlns="http://www.w3.org/2000/svg"><g clip-path="url(#a)"><path d="M0 22.5v-21C0 .675.675 0 1.5 0h21c.825 0 1.5.675 1.5 1.5v21c0 .825-.675 1.5-1.5 1.5h-21C.675 24 0 23.325 0 22.5Z" fill="#2D327D"/><path d="M21 12.004c0-2.03-.844-3.865-2.2-5.175a.374.374 0 0 0-.52.541 6.428 6.428 0 0 1 1.97 4.634 6.43 6.43 0 0 1-1.963 4.627.375.375 0 0 0 .521.54A7.177 7.177 0 0 0 21 12.004Z" fill="#fff"/><path d="M18.6 12.005a5.236 5.236 0 0 0-1.681-3.846.377.377 0 0 0-.507-.009.376.376 0 0 0-.003.559 4.487 4.487 0 0 1 .01 6.583.376.376 0 0 0 .004.558.378.378 0 0 0 .508-.009 5.239 5.239 0 0 0 1.669-3.836ZM16.2 12.006c0-1.014-.45-1.924-1.16-2.543a.374.374 0 0 0-.493.002l-.001.001a.376.376 0 0 0 .007.566 2.62 2.62 0 0 1 .012 3.937.376.376 0 0 0-.006.564l.001.001a.374.374 0 0 0 .495.001 3.362 3.362 0 0 0 1.145-2.529ZM3.478 9.526a.477.477 0 0 0-.478.478v3.992c0 .264.214.478.478.478h2.447V9.526H3.478ZM10.799 6.251a.477.477 0 0 0-.513.078L6.675 9.526v4.948l3.611 3.196a.478.478 0 0 0 .795-.358V6.688a.48.48 0 0 0-.282-.437Z" fill="#fff"/></g><defs><clipPath id="a"><path fill="#fff" d="M0 0h24v24H0z"/></clipPath></defs></svg>
